Numix-GalliumOS/64/mimetypes/text-x-vcard.svg

<?xml version="1.0" encoding="UTF-8" standalone="no"?>
<svg
   xmlns:dc="http://purl.org/dc/elements/1.1/"
   xmlns:cc="http://creativecommons.org/ns#"
   xmlns:rdf="http://www.w3.org/1999/02/22-rdf-syntax-ns#"
   xmlns:svg="http://www.w3.org/2000/svg"
   xmlns="http://www.w3.org/2000/svg"
   xmlns:sodipodi="http://sodipodi.sourceforge.net/DTD/sodipodi-0.dtd"
   xmlns:inkscape="http://www.inkscape.org/namespaces/inkscape"
   width="64px"
   height="64px"
   viewBox="0 0 64 64"
   version="1.1"
   id="svg6221"
   inkscape:version="0.91 r13725"
   sodipodi:docname="text-x-vcard.svg">
  <metadata
     id="metadata6246">
    <rdf:RDF>
      <cc:Work
         rdf:about="">
        <dc:format>image/svg+xml</dc:format>
        <dc:type
           rdf:resource="http://purl.org/dc/dcmitype/StillImage" />
        <dc:title></dc:title>
      </cc:Work>
    </rdf:RDF>
  </metadata>
  <sodipodi:namedview
     pagecolor="#ffffff"
     bordercolor="#666666"
     borderopacity="1"
     objecttolerance="10"
     gridtolerance="10"
     guidetolerance="10"
     inkscape:pageopacity="0"
     inkscape:pageshadow="2"
     inkscape:window-width="1366"
     inkscape:window-height="704"
     id="namedview6244"
     showgrid="false"
     inkscape:zoom="5.6568542"
     inkscape:cx="25.613612"
     inkscape:cy="25.794156"
     inkscape:window-x="0"
     inkscape:window-y="27"
     inkscape:window-maximized="1"
     inkscape:current-layer="surface1">
    <inkscape:grid
       type="xygrid"
       id="grid4143" />
  </sodipodi:namedview>
  <defs
     id="defs6223" />
  <g
     id="surface1">
    <path
       style=" stroke:none;fill-rule:nonzero;fill:rgb(86.27451%,86.27451%,86.27451%);fill-opacity:1;"
       d="M 10.671875 0 C 9.296875 0 8 1.355469 8 2.789062 L 8 61.210938 C 8 62.566406 9.375 64 10.671875 64 L 53.328125 64 C 54.625 64 56 62.566406 56 61.210938 L 56 18 L 38 0 Z M 10.671875 0 "
       id="path6234" />
    <path
       style=" stroke:none;fill-rule:nonzero;fill:rgb(0%,0%,0%);fill-opacity:0.196078;"
       d="M 42 18 L 56 32 L 56 18 Z M 42 18 "
       id="path6236" />
    <path
       style=" stroke:none;fill-rule:nonzero;fill:rgb(100%,100%,100%);fill-opacity:0.392157;"
       d="M 38 0 L 55.984375 18 L 40.757812 18 C 39.410156 18 38 16.574219 38 15.226562 Z M 38 0 "
       id="path6238" />
    <g
       transform="matrix(2.182419,0,0,2.1797494,-0.92223015,-3.8581025)"
       style="font-size:16.09028244px;line-height:125%;font-family:'Ubuntu Mono';letter-spacing:0;word-spacing:0;fill:#888888"
       id="text10">
      <path
         d="m 21.500102,18.507865 q 0,1.131348 -0.361403,2.074138 -0.361403,0.934933 -1.021356,1.469181 -0.659953,0.534248 -1.532034,0.534248 -0.581387,0 -1.029212,-0.274981 -0.447825,-0.282837 -0.64424,-0.738519 l -0.125705,0 q -0.848511,1.0135 -2.160561,1.0135 -1.390615,0 -2.191986,-0.832798 -0.801372,-0.840654 -0.801372,-2.294122 0,-1.657739 1.052782,-2.671239 1.052783,-1.013499 2.749805,-1.013499 0.675666,0 1.484894,0.133562 0.817084,0.125705 1.343475,0.306407 l -0.180701,3.841869 q 0,1.092065 0.5971,1.092065 0.502822,0 0.801372,-0.730662 0.29855,-0.738519 0.29855,-1.924863 0,-1.26491 -0.526391,-2.23127 -0.526391,-0.974216 -1.484894,-1.484894 -0.950647,-0.510678 -2.176274,-0.510678 -1.58703,0 -2.757661,0.652097 -1.17063,0.652096 -1.799157,1.885579 -0.62067,1.225627 -0.62067,2.836227 0,2.168417 1.154918,3.331191 1.162774,1.154918 3.362617,1.154918 0.832798,0 1.830584,-0.180701 0.997786,-0.188558 1.964146,-0.542105 l 0,1.508464 q -1.681309,0.714949 -3.731877,0.714949 -2.985502,0 -4.658954,-1.571316 -1.6655956,-1.571317 -1.6655956,-4.36826 0,-1.940577 0.8485109,-3.51975 0.8563677,-1.58703 2.4276847,-2.48268 1.579173,-0.903507 3.629741,-0.903507 1.728448,0 3.087637,0.707092 1.359189,0.707093 2.097708,2.011286 0.738519,1.304192 0.738519,3.009071 z m -8.045141,0.982073 q 0,1.657739 1.351332,1.657739 0.707092,0 1.076352,-0.494965 0.369259,-0.502821 0.447825,-1.626312 l 0.102136,-1.736305 q -0.400686,-0.08642 -0.903507,-0.08642 -0.982073,0 -1.532034,0.612814 -0.542104,0.612813 -0.542104,1.673452 z"
         style="font-weight:bold;font-family:'Open Sans'"
         id="path6094"
         inkscape:connector-curvature="0" />
    </g>
  </g>
</svg>

<svg xmlns="http://www.w3.org/2000/svg" viewBox="0 0 64 64">
 <g>
  <path d="m 10.672 0 c -1.375 0 -2.672 1.355 -2.672 2.789 l 0 58.42 c 0 1.355 1.375 2.789 2.672 2.789 l 42.656 0 c 1.297 0 2.672 -1.434 2.672 -2.789 l 0 -43.21 l -18 -18 m -27.328 0" style="fill:#dcdcdc;fill-opacity:1;stroke:none;fill-rule:nonzero"/>
  <path d="m 42 18 l 14 14 l 0 -14 m -14 0" style="fill:#000;fill-opacity:0.196;stroke:none;fill-rule:nonzero"/>
  <path d="m 38 0 l 17.984 18 l -15.227 0 c -1.348 0 -2.758 -1.426 -2.758 -2.773 m 0 -15.227" style="fill:#fff;fill-opacity:0.392;stroke:none;fill-rule:nonzero"/>
  <g transform="matrix(2.182419,0,0,2.1797494,-0.92223015,-3.8581025)" style="fill:#888">
   <path d="m 21.5 18.508 q 0 1.131 -0.361 2.074 -0.361 0.935 -1.021 1.469 -0.66 0.534 -1.532 0.534 -0.581 0 -1.029 -0.275 -0.448 -0.283 -0.644 -0.739 l -0.126 0 q -0.849 1.014 -2.161 1.014 -1.391 0 -2.192 -0.833 -0.801 -0.841 -0.801 -2.294 0 -1.658 1.053 -2.671 1.053 -1.013 2.75 -1.013 0.676 0 1.485 0.134 0.817 0.126 1.343 0.306 l -0.181 3.842 q 0 1.092 0.597 1.092 0.503 0 0.801 -0.731 0.299 -0.739 0.299 -1.925 0 -1.265 -0.526 -2.231 -0.526 -0.974 -1.485 -1.485 -0.951 -0.511 -2.176 -0.511 -1.587 0 -2.758 0.652 -1.171 0.652 -1.799 1.886 -0.621 1.226 -0.621 2.836 0 2.168 1.155 3.331 1.163 1.155 3.363 1.155 0.833 0 1.831 -0.181 0.998 -0.189 1.964 -0.542 l 0 1.508 q -1.681 0.715 -3.732 0.715 -2.986 0 -4.659 -1.571 -1.666 -1.571 -1.666 -4.368 0 -1.941 0.849 -3.52 0.856 -1.587 2.428 -2.483 1.579 -0.904 3.63 -0.904 1.728 0 3.088 0.707 1.359 0.707 2.098 2.01 0.739 1.304 0.739 3.01 z m -8.05 0.982 q 0 1.658 1.351 1.658 0.707 0 1.076 -0.495 0.369 -0.503 0.448 -1.626 l 0.102 -1.736 q -0.401 -0.086 -0.904 -0.086 -0.982 0 -1.532 0.613 -0.542 0.613 -0.542 1.673 z"/>
  </g>
 </g>
</svg>
